X:1
T:Title
%%score { ( 1 3 ) | ( 2 4 ) }
L:1/8
M:6/8
K:Eb
V:1 treble nm="Grand Piano"
V:3 treble 
V:2 bass 
V:4 bass 
V:1
 z3 z2[Q:1/4=84] E/F/ | G_G=G cBE | GAE G2 B/B/ | [DB][DF][EG] [FA][GB][FA] | G3- G2 E/F/ | %5
 G_G=G cBE | GAE G2 B/B/ | BFB cFc | B-[B,B-][EB-] [DFB]3 | [EGB]3 [B,EG][A,EF][G,E] | %10
 [EGB]3 [B,EG][A,EF][G,E] | [DF][_D=E][=DF] [DB][DF][DA] | [EG]2 [FA] [GB]3 | [GB]3 GFE | c3 edc | %15
 BG[CEA] [B,EG]2 [A,DF] |[M:5/8] [G,B,E]-[G,B,E]- [G,B,E]3 |] %17
V:2
 z3 z2 [E,G,]/[E,A,E]/ | [E,B,E][E,=A,E][E,B,E] [E,_A,E][E,G,E][E,G,] | %2
 [E,B,E][E,CE][E,=B,] [E,_B,E]2 [E,G,E]/[E,G,E]/ | [B,,F,][B,,B,][B,,B,] [B,,B,][B,,B,][B,,B,] | %4
 [E,B,E]3- [E,B,E]2 [E,G,]/[E,A,E]/ | [E,B,E][E,=A,E][E,B,E] [E,_A,E][E,G,E][E,G,] | %6
 [E,B,E][E,CE][E,=B,] [E,_B,E]2 [=E,B,_D]/[E,B,D]/ | [F,B,D][F,B,D][F,B,D] [F,=A,E][F,A,E][F,A,E] | %8
 .F,2 C z2 A | E,3 E,E,E, | E,3 E,E,E, | [B,,B,][B,,B,][B,,B,] [B,,F,][B,,B,][B,,B,] | %12
 [E,B,]2 [E,B,] [E,E]3 | [E,E]3 [E,B,E][F,B,D][G,B,] | [A,E]3 [A,CE][A,B,E][A,E] | %15
 [E,G,E][E,B,E]A,, B,,2 B,, |[M:5/8] E,-E,- E,3 |] %17
V:3
 x6 | x6 | x6 | x6 | x6 | x6 | x6 | x6 | .D3 z3 | x6 | x6 | x6 | x6 | x6 | x6 | x6 |[M:5/8] x5 |] %17
V:4
 x6 | x6 | x6 | x6 | x6 | x6 | x6 | x6 | B,,3 B,,3 | x6 | x6 | x6 | x6 | x6 | x6 | x6 | %16
[M:5/8] x5 |] %17

